X:1
T:[ID 1-33a]
T:[ID 1-33a]
T:Bezeichnung standardisiert: Menuet van de graaf van Saksen; Menuet In anderer Quelle: Menuet van de graaf van Saksen (Anm. S. Wascher);  163 - Hs. Bolhuis 1738 (Anm. S. Wascher);
T:Urheber unbekannt Erstbeleg: 1738 (Datum in der schriftlichen Quelle) Datum in der hier transkribierten schriftlichen Quelle: 1799
C:Urheber unbekannt
C:Erstbeleg: 1738 (Datum in der schriftlichen Quelle)
C:Datum in der hier transkribierten schriftlichen Quelle: 1799
%%score 1 2
L:1/8
M:3/4
K:G
V:1 treble nm="Primo"
V:2 treble nm="Secondo"
V:1
 G4 Bd | c2 Ac B2 | g2 d4 | c2 Ac B2 | g2 d4 | edcBAG | AB c2 A2 |{B} A6 :: d4 fa | g2 dg f2 | %10
 a2 c2 c2 | Tc4 B2 | d2 gdbd | c2 Ac B2 | d2 gdbd | c2 Ac B2 | AcBAGF | G6 :| %18
V:2
 !fermata!B,4 GB | A2 FA G2 | c2 B4 | A2 GA G2 | c2 B4 | cBAGFE | DG A2 G2 |{G} F6 :: F4 df | %9
 e2 ce d2 | c2 A2 A2 | A4 G2 | G2 cGeG | A2 FA G2 | G2 cGeG | A2 FA G2 | FAGCB,A, | B,6 :| %18

